X:1
T: The Caffler's Courtship
C:
R:Jig
Q:180
K:D
M:6/8
L:1/16
|:=c2|B2A2B2 G2E2D2|D2E2D2 G2E2D2|G2E2D2 A2G2E2|A2B2A2 A2B2=c2|
B2A2B2 G2E2D2|D2E2D2 G2E2D2|G2E2G2 A2G2E2|D2E2D2 D4:|
|:=c2|B2A2B2 G2B2d2|e2g2e2 d2B2G2|=c2B2A2 B2G2E2|A2B2A2 A2B2=c2|
B2A2B2 G2B2d2|e2g2e2 d2B2G2|=c2B2A2 B2G2E2|D2E2D2 D4:|
